X: 30711
T: MISS BRUCE'S REEL
O: Irish Melody
%R: jig
B: Elias Howe "The Musician's Companion" Part 3 1844 p.71 #1
S: http://imslp.org/wiki/The_Musician's_Companion_(Howe,_Elias)
Z: 2015 John Chambers <jc:trillian.mit.edu>
M: 6/8
L: 1/8
K: D
% - - - - - - - - - - - - - - - - - - - - - - - - -
(A/G/) |\
FAd dcd | Adf fef | afd afd | cee e2 A/G/ |\
FAd dcd | Adf fef | afd gec | ddd d2 :|
|: f/g/ |\
afd dcB | ABA A2A | gab afd | cee e2 f/g/ |\
afd cBe | dce a2g | fga gec | ddd d2 :|
% - - - - - - - - - - - - - - - - - - - - - - - - -
